img/icons/mime/large/tex.svg

<svg height="140.9" width="125.3" xmlns="http://www.w3.org/2000/svg" xmlns:xlink="http://www.w3.org/1999/xlink"><linearGradient id="a" gradientTransform="matrix(.939922 0 0 .896911 -12.081733 -3.352424)" gradientUnits="userSpaceOnUse" x1="24" x2="73" y1="16.4" y2="73.4"><stop offset="0" stop-color="#fff"/><stop offset="1" stop-color="#fff" stop-opacity="0"/></linearGradient><rect fill="none" height="133.4" rx="22.9" stroke="#000" stroke-linejoin="round" stroke-opacity=".5" stroke-width="7.5" width="117.8" x="3.8" y="3.8"/><rect fill="#bab5ab" height="133.4" rx="22.9" stroke="#000" stroke-width="3.8" width="117.8" x="3.6" y="3.7"/><path d="m100.3 132.6h-75.7c-11.6 0-17.3-5.7-17.3-17.4 0 0 27.6-66.5 110.4-76.6v76.6c0 11.7-5.7 17.4-17.4 17.4z" fill="#fff" fill-opacity=".3"/><g transform="translate(129.40822 18.610464)"><rect fill="#fff" height="69.5" rx="11.1" stroke="#000" stroke-width="5.6" width="92.8" x="-112.6" y="-2.9"/><path d="m-99.4 39.3 13.3-31.1h6.9l13.3 31.1h-7.1l-3.1-7.6h-13l-3.1 7.6zm16.8-23.5-4.6 11.1h9.1zm26.2 39.7v-31.2h5.9v8.9h7.1c3.3 0 6 1 8 2.9.8.9 1.5 2.1 2 3.5.6 1.4.8 3 .8 4.7 0 3.7-.9 6.4-2.8 8.3-1.8 1.9-4.5 2.9-8 2.9zm5.9-4.7h6.1c1.7 0 3-.6 4-1.7 1.1-1.2 1.6-2.8 1.6-4.8 0-1.9-.5-3.5-1.5-4.6-.9-1.2-2.3-1.8-4.1-1.8h-6.1z"/></g><path d="m73.2 94.1h7.9l6.9 10.7 6.8-10.7h8l-11.4 15.6 11.4 15.5h-8l-6.8-10.7-6.9 10.7h-7.9l11.4-15.5zm-14.6 25.9c.3.2.8.4 1.4.6.7.1 1.5.2 2.4.2h8.4v4.4h-9.2c-3.5 0-6.2-.9-8.1-2.8-1.9-2-2.9-4.7-2.9-8.3 0-1.8.3-3.4.7-4.7.5-1.3 1.2-2.5 2.2-3.5 1.9-1.9 4.6-2.9 8.1-2.9h9.2v4.5h-8.4l-2.2.1c-.4.1-1 .3-1.6.7-.3.2-.7.7-1 1.3l-.4 2v.3h13.6v4.5h-13.6v.2l.2 1.4.2.6c.2.6.5 1 1 1.4zm-38.3-25.9h28v5.4h-10.7v25.7h-6.6v-25.7h-10.7z" fill="#fff"/><path d="m73.9 94.8h7.9l6.9 10.7 6.8-10.7h7.9l-11.4 15.6 11.4 15.5h-7.9l-6.8-10.7-6.9 10.7h-7.9l11.4-15.5zm-14.6 25.8c.3.3.8.5 1.4.6.7.2 1.5.3 2.4.3h8.4v4.4h-9.3c-3.4 0-6.1-.9-8-2.9-1.9-1.9-2.9-4.6-2.9-8.2 0-1.9.2-3.4.7-4.7s1.2-2.5 2.2-3.5c1.9-1.9 4.6-2.9 8-2.9h9.3v4.5h-8.4l-2.2.1c-.4.1-1 .3-1.6.7-.4.2-.7.7-1 1.3l-.4 2-.1.3h13.7v4.4h-13.7l.1.3.2 1.3.2.7c.1.5.5 1 1 1.3zm-38.3-25.8h28v5.4h-10.7v25.7h-6.7v-25.7h-10.6z"/><path d="m24.6 7.3h75.7c11.7 0 17.4 5.7 17.4 17.4 0 0-79.3.9-110.4 91.3v-91.3c0-10.3 7-17.4 17.3-17.4z" fill="url(#a)"/></svg>

<svg xmlns:svg="http://www.w3.org/2000/svg" xmlns="http://www.w3.org/2000/svg" xmlns:xlink="http://www.w3.org/1999/xlink" height="140.9" width="125.3" id="svg1" version="1">
<style>
.s0{
  stop-color:#46a046;
  stop-opacity:1;
}
.s1{
  stop-color:#df421e;
  stop-opacity:1;
}
.s2{
  stop-color:#ada7c8;
  stop-opacity:1;
}
.s3{
  stop-color:#eed680;
  stop-opacity:1;
}
.s4{
  font-family:Trek;
  font-size:40;
  stroke-width:1;
}

</style>  <metadata id="metadata15"/>
  <defs id="defs3">
    <linearGradient id="linearGradient3587">
      <stop offset="0" id="stop3589" style="stop-color:#efe0cd;stop-opacity:0.6"/>
      <stop offset="1" id="stop3591" style="stop-color:#cececd;stop-opacity:0.2"/>
    </linearGradient>
    <linearGradient id="linearGradient2832">
      <stop id="stop2834" offset="0" style="stop-color:#ffffff;stop-opacity:1"/>
      <stop id="stop2836" offset="1" style="stop-color:#ffffff;stop-opacity:0"/>
    </linearGradient>
    <linearGradient id="linearGradient839">
      <stop id="stop840" offset="0" class="s0"/>
      <stop id="stop841" offset="0.4" class="s1"/>
      <stop id="stop842" offset="0.7" class="s2"/>
      <stop id="stop843" offset="1" class="s3"/>
    </linearGradient>
    <linearGradient y2="0.5" x2="1" y1="0.5" x1="0" id="linearGradient836" xlink:href="#linearGradient839"/>
    <linearGradient gradientUnits="userSpaceOnUse" y2="73.4" x2="73" y1="16.4" x1="24" gradientTransform="matrix(0.939922,0,0,0.896911,-12.081733,-3.3524237)" id="linearGradient2830" xlink:href="#linearGradient2832"/>
    <linearGradient xlink:href="#linearGradient1700" id="linearGradient1407" gradientUnits="userSpaceOnUse" gradientTransform="matrix(0.777129,0,0,0.894628,-162.4688,12.76856)" x1="111.3" y1="124.3" x2="107.3" y2="93.7"/>
    <linearGradient xlink:href="#linearGradient1700" id="linearGradient1390" gradientUnits="userSpaceOnUse" gradientTransform="matrix(0.777129,0,0,0.894628,-2.922179,10.43077)" x1="111.3" y1="124.3" x2="107.3" y2="93.7"/>
    <linearGradient id="linearGradient1350">
      <stop id="stop1352" offset="0" class="s0"/>
      <stop id="stop1354" offset="0.4" class="s1"/>
      <stop id="stop1356" offset="0.7" class="s2"/>
      <stop id="stop1358" offset="1" class="s3"/>
    </linearGradient>
    <linearGradient y2="0.5" x2="1" y1="0.5" x1="0" id="linearGradient1360" xlink:href="#linearGradient839"/>
    <linearGradient gradientUnits="userSpaceOnUse" y2="88" x2="128.7" y1="121.7" x1="123.5" gradientTransform="matrix(0.870364,0,0,1.001961,4.612015,4.886798)" id="linearGradient1362" xlink:href="#linearGradient1700"/>
    <linearGradient y2="0.5" x2="1" y1="0.5" x1="0" id="linearGradient1363" xlink:href="#linearGradient839"/>
    <linearGradient id="linearGradient1353">
      <stop id="stop1355" offset="0" class="s0"/>
      <stop id="stop1357" offset="0.4" class="s1"/>
      <stop id="stop1359" offset="0.7" class="s2"/>
      <stop id="stop1361" offset="1" class="s3"/>
    </linearGradient>
    <linearGradient id="linearGradient1700">
      <stop id="stop1701" offset="0" style="stop-color:#000000;stop-opacity:0.7"/>
      <stop id="stop1702" offset="1" style="stop-color:#000000;stop-opacity:0"/>
    </linearGradient>
    <linearGradient xlink:href="#linearGradient839" id="linearGradient1427" x1="0" y1="0.5" x2="1" y2="0.5"/>
    <linearGradient id="linearGradient1417">
      <stop offset="0" id="stop1419" class="s0"/>
      <stop offset="0.4" id="stop1421" class="s1"/>
      <stop offset="0.7" id="stop1423" class="s2"/>
      <stop offset="1" id="stop1425" class="s3"/>
    </linearGradient>
    <linearGradient y2="0.5" x2="1" y1="0.5" x1="0" id="linearGradient1381" xlink:href="#linearGradient839"/>
    <linearGradient id="linearGradient1371">
      <stop id="stop1373" offset="0" class="s0"/>
      <stop id="stop1375" offset="0.4" class="s1"/>
      <stop id="stop1377" offset="0.7" class="s2"/>
      <stop id="stop1379" offset="1" class="s3"/>
    </linearGradient>
    <linearGradient xlink:href="#linearGradient839" id="linearGradient1374" x1="0" y1="0.5" x2="1" y2="0.5"/>
    <linearGradient id="linearGradient1364">
      <stop offset="0" id="stop1366" class="s0"/>
      <stop offset="0.4" id="stop1368" class="s1"/>
      <stop offset="0.7" id="stop1370" class="s2"/>
      <stop offset="1" id="stop1372" class="s3"/>
    </linearGradient>
    <linearGradient xlink:href="#linearGradient839" id="linearGradient1382" x1="0" y1="0.5" x2="1" y2="0.5"/>
    <linearGradient id="linearGradient1370">
      <stop offset="0" id="stop1374" class="s0"/>
      <stop offset="0.4" id="stop1376" class="s1"/>
      <stop offset="0.7" id="stop1378" class="s2"/>
      <stop offset="1" id="stop1380" class="s3"/>
    </linearGradient>
  </defs>
  <rect rx="22.9" ry="22.9" y="3.8" x="3.8" height="133.4" width="117.8" id="rect834" style="fill:none;stroke-linejoin:round;stroke-opacity:0.5;stroke-width:7.5;stroke:#000"/>
  <rect rx="22.9" ry="22.9" y="3.7" x="3.6" height="133.4" width="117.8" id="rect828" style="fill:#bab5ab;stroke-width:3.8;stroke:#000"/>
  <path id="path2838" d="M100.3 132.6L24.6 132.6C13 132.6 7.3 126.9 7.3 115.2 7.3 115.2 34.9 48.7 117.7 38.6L117.7 115.2C117.7 126.9 112 132.6 100.3 132.6z" style="fill-opacity:0.3;fill:#fff"/>
  <g id="g1400" transform="translate(129.40822,18.610464)">
    <rect id="rect849" width="92.8" height="69.5" ry="11.1" x="-112.6" y="-2.9" rx="11.1" style="fill:#fff;stroke-width:5.6;stroke:#000"/>
    <path d="M-99.4 39.3L-86.1 8.2 -79.2 8.2 -65.9 39.3 -73 39.3 -76.1 31.7 -89.1 31.7 -92.2 39.3 -99.4 39.3zM-82.6 15.8L-87.2 26.9 -78.1 26.9 -82.6 15.8zM-56.4 55.5L-56.4 24.3 -50.5 24.3 -50.5 33.2 -43.4 33.2C-40.1 33.2-37.4 34.2-35.4 36.1 -34.6 37-33.9 38.2-33.4 39.6 -32.8 41-32.6 42.6-32.6 44.3 -32.6 48-33.5 50.7-35.4 52.6 -37.2 54.5-39.9 55.5-43.4 55.5L-56.4 55.5zM-50.5 50.8L-44.4 50.8C-42.7 50.8-41.4 50.2-40.4 49.1 -39.3 47.9-38.8 46.3-38.8 44.3 -38.8 42.4-39.3 40.8-40.3 39.7 -41.2 38.5-42.6 37.9-44.4 37.9L-50.5 37.9 -50.5 50.8z" id="path896" class="s4"/>
  </g>
  <path d="M73.2 94.1L81.1 94.1 88 104.8 94.8 94.1 102.8 94.1 91.4 109.7 102.8 125.2 94.8 125.2 88 114.5 81.1 125.2 73.2 125.2 84.6 109.7 73.2 94.1zM58.6 120C58.9 120.2 59.4 120.4 60 120.6 60.7 120.7 61.5 120.8 62.4 120.8L70.8 120.8 70.8 125.2 61.6 125.2C58.1 125.2 55.4 124.3 53.5 122.4 51.6 120.4 50.6 117.7 50.6 114.1 50.6 112.3 50.9 110.7 51.3 109.4 51.8 108.1 52.5 106.9 53.5 105.9 55.4 104 58.1 103 61.6 103L70.8 103 70.8 107.5 62.4 107.5 60.2 107.6C59.8 107.7 59.2 107.9 58.6 108.3 58.3 108.5 57.9 109 57.6 109.6L57.2 111.6 57.2 111.9 70.8 111.9 70.8 116.4 57.2 116.4 57.2 116.6 57.4 118 57.6 118.6C57.8 119.2 58.1 119.6 58.6 120zM20.3 94.1L48.3 94.1 48.3 99.5 37.6 99.5 37.6 125.2 31 125.2 31 99.5 20.3 99.5 20.3 94.1z" id="path1405" style="fill:#fff;font-family:Trek;font-size:40;stroke-width:1"/>
  <path d="M73.9 94.8L81.8 94.8 88.7 105.5 95.5 94.8 103.4 94.8 92 110.4 103.4 125.9 95.5 125.9 88.7 115.2 81.8 125.9 73.9 125.9 85.3 110.4 73.9 94.8zM59.3 120.6C59.6 120.9 60.1 121.1 60.7 121.2 61.4 121.4 62.2 121.5 63.1 121.5L71.5 121.5 71.5 125.9 62.2 125.9C58.8 125.9 56.1 125 54.2 123 52.3 121.1 51.3 118.4 51.3 114.8 51.3 112.9 51.5 111.4 52 110.1 52.5 108.8 53.2 107.6 54.2 106.6 56.1 104.7 58.8 103.7 62.2 103.7L71.5 103.7 71.5 108.2 63.1 108.2 60.9 108.3C60.5 108.4 59.9 108.6 59.3 109 58.9 109.2 58.6 109.7 58.3 110.3L57.9 112.3 57.8 112.6 71.5 112.6 71.5 117 57.8 117 57.9 117.3 58.1 118.6 58.3 119.3C58.4 119.8 58.8 120.3 59.3 120.6zM21 94.8L49 94.8 49 100.2 38.3 100.2 38.3 125.9 31.6 125.9 31.6 100.2 21 100.2 21 94.8z" id="path839" class="s4"/>
  <path id="rect2063" d="M24.6 7.3L100.3 7.3C112 7.3 117.7 13 117.7 24.7 117.7 24.7 38.4 25.6 7.3 116L7.3 24.7C7.3 14.4 14.3 7.3 24.6 7.3z" fill="url(#linearGradient2830)"/>
</svg>
